X: 11990
T: Enrico
R: reel
M: 4/4
K: Dmajor
|:A2|d2 fe dcdB|ABAG F2 A2|d2 ef gfgf|e2 a2 a2 f2|
d2 fe dcdB|ABAG F2 A2|B2 gf edec|d2 d2 d2:|
|:z2|a2 ag fgfe|dedc B2 B2|gagf efed|cdcB A2 A2|
d2 d2 cecA|d2 d2 cecA|d2 f2 edec|d2 d2 d2:|

